X:441
T:The Lost Cave
C:Loneview
N:Transcribed by Larry Tanner
R:bluegrass
L:1/8
Q:1/4=210
M:4/4
K:C
z2 g6 | "Gm"ag fd c_B GB | "Bb"cd z2 (3cdc _B2 | cd z4 (3ded | "C"c2 (3cdc _B2 (3BcB | 
"Am"A2 {B}c_B cB A2 | "Gm"G8 | DF GA _Bc df | g4 g3g | "Gm"ag fd c_B GB | "Bb"cd z2 (3cdc _B2 | 
cd z4 (3ded | "C"c2 (3cdc _B2 (3BcB | "Am"A2 {B}c_B cB A2 | "Gm"G6 _B2 | G8 | 
"F"DF AF DF AF | DF Ac _BA GF | "Gm"DG _BG DG BG | DG _Bc BA GF | "F"DF AF DF AF | 
DF Ac _BA GF | "A"AB c^c de ^fg | "D"a8 | 


